X: 14
T: Monaghan, The
Z: UPipes & harp
S: https://thesession.org/tunes/67#setting49216
R: jig
M: 6/8
L: 1/8
K: Emin
|:BGE F2E|BGE FGA|BGE F2E|AFD FGA|
BGE F2E|BGE FGA|dcB ABG|FDF AFD:|
|:EGB efg|fed edB|DFA dAG|FDF AFD|
EGB efg|fed edB|dcB ABG|FDF AFD:|
|:g2e efe|geg bge|g2e eBe|fdf afd|
g2e efe|geg bge|dcB ABG|FDF AFD:|
|:EGB eBG|BGE FED|EGB eBG|FDF AFD|
EGB GBd|Beg egb|dcB ABG|FDF AFD:|

